!!!!SEGMENT: pl-kk--kk-i-476--003_studzinski-wincenty--msza-credo.krn
!!!cenid: 18xx:1374
!!!COM: Studziński, Wincenty
!!!COM-rismID: pe41023091
!!!CDT: 1815/03/30-1854/07/15
!!!CNT: Polish
!!!OPR: Msza
!!!OTL: Credo
!!!OMV: 003
!!!PDT:
!!!AGN: Sacred; Mass
!!!SMS-siglum: PL-Kk
!!!SMS-shelfmark: Kk.I.476
!!!SMS-shelfwork: 001-003 M
!!!SMS-variant: PL-KK Kk.I.476/003: 1-20
!!!SMS-altvar: PL-KK Kk.I.476/003: 21-26
!!!NIFC-rismSourceID: 1001140245
!!!NIFC-islandoraID: pl-kk:14115
!!!URL-pdf-islandora: https://repozytorium.nifc.pl/islandora/object/pl-kk%3A14115/datastream/PDF/view
!!!URL-scan: https://polish.musicsources.pl/pl/lokalizacje/galeria/rekopisy/6083 @EN{Scan on Polish Music Herritage in Open Access Website} @PL{Skany w portalu Dziedzictwo Muzyki Polskiej w otwartym dostępie}
!!!ONB-nifc: UWAGA: części Mszy: 1. Kirie, 2. Gloria, 3. Credo, 4. Sanctus, 5. Benedictus, 6. Agnus
!!!AIN: 1 alto 1 empty 1 soprn 1 tenor
!!!key:
**kern	**text	**text	**dynam	**kern	**text	**dynam	**kern	**text	**dynam	**kern	**text	**dynam
*part4	*part4	*part4	*part4	*part3	*part3	*part3	*part2	*part2	*part2	*part1	*part1	*part1
*staff4	*staff4	*staff4	*	*staff3	*staff3	*	*staff2	*staff2	*	*staff1	*staff1	*
*Iempty	*	*	*	*Itenor	*	*	*Ialto	*	*	*Isoprn	*	*
*I"Basſo	*	*	*	*I"Tenor	*	*	*I"Alto	*	*	*I"Soprano	*	*
*I'B.	*	*	*	*I'T.	*	*	*I'A.	*	*	*I'S	*	*
*group1	*	*	*	*group1	*	*	*group1	*	*	*group1	*	*
*clefF4	*	*	*	*clefC4	*	*	*clefC3	*	*	*clefC1	*	*
*k[b-]	*	*	*	*k[b-]	*	*	*k[b-]	*	*	*k[b-]	*	*
*F:	*	*	*	*F:	*	*	*F:	*	*	*F:	*	*
*M3/4	*	*	*	*M3/4	*	*	*M3/4	*	*	*M3/4	*	*
=1	=1	=1	=1	=1	=1	=1	=1	=1	=1	=1	=1	=1
*2\right	*	*	*	*2\right	*	*	*2\right	*	*	*2\right	*	*
!	!	!	!	!LO:TX:b:t=Allegro non troppo.	!	!	!LO:TX:a:t=P:problem=all\right&colon; global	!	!	!LO:TX:a:t=P:problem=all\right&colon; global	!	!
!LO:TX:a:t=P:problem=all\right&colon; global	!	!	!	!LO:TX:a:t=P:problem=all\right&colon; global	!	!LO:DY:b	!LO:TX:a:t=Allegro non troppo	!	!LO:DY:b	!LO:TX:a:t=Allegro non troppo	!	!
2.F\	Cre-	.	.	2.d\	Cre-	mf	2.f\	Cre-	mf	2.b-\	Cre-	.
=2	=2	=2	=2	=2	=2	=2	=2	=2	=2	=2	=2	=2
4F\	-do	.	.	4c\	-do	.	4f\	-do	.	4a\	-do	.
4r	.	.	.	4r	.	.	4r	.	.	4r	.	.
4r	.	.	.	4r	.	.	4r	.	.	4r	.	.
=3	=3	=3	=3	=3	=3	=3	=3	=3	=3	=3	=3	=3
2.C/	Cre-	.	.	2.B-\	Cre-	.	2.e\	Cre-	.	2.g\	Cre-	.
=4	=4	=4	=4	=4	=4	=4	=4	=4	=4	=4	=4	=4
4F\	-do	.	.	4A\	-do	.	4c\	-do	.	4f\	-do	.
4r	.	.	.	4r	.	.	4r	.	.	4r	.	.
4r	.	.	.	4r	.	.	4r	.	.	4r	.	.
=5	=5	=5	=5	=5	=5	=5	=5	=5	=5	=5	=5	=5
2.F\	in	.	.	(2d\	in	.	2.f\	in	.	2.b-\	in	.
.	.	.	.	4d-X\)	.	.	.	.	.	.	.	.
=6	=6	=6	=6	=6	=6	=6	=6	=6	=6	=6	=6	=6
2F\	u-	.	.	2c\	u-	.	2f\	u-	.	2a\	u-	.
4BB-/	-num	.	.	4dn\	-num	.	4f\	-num	.	4b-\	-num	.
!	!	!	!	!LO:PB:g=original	!	!	!LO:LB:g=original	!	!	!	!	!
=7	=7	=7	=7	=7	=7	=7	=7	=7	=7	=7	=7	=7
2.C/	De-	.	.	(4c\	De-	.	(2f\	De-	.	2f/	De-	.
.	.	.	.	4Bn\	.	.	.	.	.	.	.	.
.	.	.	.	4B-X\	.	.	4e\)	.	.	4e/	.	.
!LO:LB:g=original	!	!	!	!	!	!	!	!	!	!	!	!
=8	=8	=8	=8	=8	=8	=8	=8	=8	=8	=8	=8	=8
4F\	-um	.	.	4A\)	-um	.	4c\	-um	.	4f\	-um	.
4F\	Pa-	.	.	4r	.	.	4r	.	.	4r	.	.
4F\	-trem	.	.	4r	.	.	4r	.	.	4r	.	.
!	!	!	!	!	!	!	!	!	!	!LO:PB:g=original	!	!
=9	=9	=9	=9	=9	=9	=9	=9	=9	=9	=9	=9	=9
2F\	Pa-	.	.	2d\	Pa-	.	2f\	Pa-	.	2ff\	Pa-	.
4F\	-trem	.	.	4d\	-trem	.	4f\	-trem	.	4ff\	-trem	.
=10	=10	=10	=10	=10	=10	=10	=10	=10	=10	=10	=10	=10
4F\	om-	.	.	4c\	om-	.	4f\	o-	.	4ee\	o-	.
4F\	-ni-	.	.	4A\	-ni-	.	4f\	-mni-	.	4cc\	-mni-	.
4F\	-po-	.	.	4c\	-po-	.	4f\	-po-	.	4ee\	-po-	.
=11	=11	=11	=11	=11	=11	=11	=11	=11	=11	=11	=11	=11
2.F\	-ten-	.	.	(4B-\	-ten-	.	(2f\	-ten-	.	2.dd\	-ten-	.
.	.	.	.	4d\	.	.	.	.	.	.	.	.
.	.	.	.	4e\	.	.	4g\)	.	.	.	.	.
=12	=12	=12	=12	=12	=12	=12	=12	=12	=12	=12	=12	=12
4F\	-tem	.	.	4f\)	-tem	.	4a\	-tem	.	4cc\	-tem	.
4r	.	.	.	4r	.	.	4r	.	.	4r	.	.
4r	.	.	.	4r	.	.	4r	.	.	4r	.	.
!	!	!	!	!LO:LB:g=original	!	!	!	!	!	!	!	!
=13	=13	=13	=13	=13	=13	=13	=13	=13	=13	=13	=13	=13
4E\	fac-	.	.	4c\	fac-	.	4g\	fac-	.	4b-\	fac-	.
4E\	-to-	.	.	4c\	-to-	.	4g\	-to-	.	4b-\	-to-	.
4E\	-rem	.	.	4c\	-rem	.	4g\	-rem	.	4b-\	-rem	.
!LO:LB:g=original	!	!	!	!	!	!	!LO:LB:g=original	!	!	!	!	!
=14	=14	=14	=14	=14	=14	=14	=14	=14	=14	=14	=14	=14
4F\	ce-	.	.	4c\	ce-	.	4f\	ce-	.	4a\	ce-	.
4F\	-li	.	.	4c\	-li	.	4f\	-li	.	4a\	-li	.
4E\	et	.	.	4c\	et	.	4g\	et	.	4g\	et	.
=15	=15	=15	=15	=15	=15	=15	=15	=15	=15	=15	=15	=15
2.D\	ter-	.	.	(4A\	ter-	.	(2.f\	ter-	.	(2f\	ter-	.
.	.	.	.	4Bn\	.	.	.	.	.	.	.	.
.	.	.	.	4G\	.	.	.	.	.	4g\)	.	.
!	!	!	!	!	!	!	!	!	!	!LO:LB:g=original	!	!
=16	=16	=16	=16	=16	=16	=16	=16	=16	=16	=16	=16	=16
4C/	-re	.	.	4G/)	-re	.	4e\)	-re	.	4g\	-re	.
!	!	!	!	!	!	!	!LO:TX:a:t=c	!	!	!	!	!
4r	.	.	.	4c\	vi-	.	4c\	vi-	.	4r	.	.
!	!	!	!	!	!	!	!LO:TX:a:t=c	!	!	!	!	!
4r	.	.	.	4c\	-si-	.	4c\	-si-	.	4r	.	.
=17	=17	=17	=17	=17	=17	=17	=17	=17	=17	=17	=17	=17
8C/	vi-	.	.	4B-\	-bi-	.	4e\	-bi-	.	8cc\	vi-	.
8C/	-si-	.	.	.	.	.	.	.	.	8dd\	-si-	.
4C/	-bi-	.	.	4B-\	-li-	.	4g\	-li-	.	4ee\	-bi-	.
8C/	-li-	.	.	4A\	-um	.	4f\	-um	.	8ff\	-li-	.
8C/	-um	.	.	.	.	.	.	.	.	8ff\	-um	.
=18	=18	=18	=18	=18	=18	=18	=18	=18	=18	=18	=18	=18
8C/	om-	.	.	8B-\	om-	.	8e\	om-	.	8ff#X\	o-	.
8C/	-ni-	.	.	8B-\	-ni-	.	8e\	-ni-	.	8gg\	-mni-	.
(8C/L	-um	.	.	4B-\	-um	.	4e\	-um	.	4gg\	-um	.
8D/	.	.	.	.	.	.	.	.	.	.	.	.
8C/	.	.	.	4r	.	.	4r	.	.	4r	.	.
8BBn/J)	.	.	.	.	.	.	.	.	.	.	.	.
!LO:LB:g=original	!	!	!	!LO:LB:g=original	!	!	!LO:LB:g=original	!	!	!	!	!
=19	=19	=19	=19	=19	=19	=19	=19	=19	=19	=19	=19	=19
8C/	Et	.	.	8B-\	Et	.	8e\	Et	.	4.cc\	Et	.
8C/	in	.	.	8B-\	in-	.	8e\	in	.	.	.	.
4C/	vi-	.	.	4B-\	-vi-	.	4g\	vi-	.	.	.	.
.	.	.	.	.	.	.	.	.	.	8dd\	in	.
4C/	-si-	.	.	4A\	-si-	.	4f\	-si-	.	8ee\	vi-	.
.	.	.	.	.	.	.	.	.	.	8ff\	-si-	.
=20	=20	=20	=20	=20	=20	=20	=20	=20	=20	=20	=20	=20
8C/	-bi-	.	.	8A\	-bi-	.	8d#X\	-bi-	.	8ff#X\	-bi-	.
8C/	-li-	.	.	8B-\	-li-	.	8e\	-li-	.	8gg\	-li-	.
(8C/L	-um	.	.	4B-\	-um	.	4e\	-um	.	4gg\	-um	.
8D/	.	.	.	.	.	.	.	.	.	.	.	.
8C/	.	.	.	4r	.	.	4r	.	.	4r	.	.
8BB-X/J)	.	.	.	.	.	.	.	.	.	.	.	.
!	!	!	!	!	!	!	!	!	!	!LO:LB:g=original	!	!
=21	=21	=21	=21	=21	=21	=21	=21	=21	=21	=21	=21	=21
2AA/	Et	.	.	2c\	Et	.	2f\	Et	.	2ff\	Et	.
4AA/	in	.	.	4c\	in	.	4f\	in	.	4ee\	in	.
=22	=22	=22	=22	=22	=22	=22	=22	=22	=22	=22	=22	=22
2BB-/	u-	.	.	2d\	u-	.	2f\	u-	.	2dd\	u-	.
4GG/	-num	.	.	4d\	-num	.	4f\	-num	.	4b-\	-num	.
=23	=23	=23	=23	=23	=23	=23	=23	=23	=23	=23	=23	=23
2C/	Do-	.	.	2c\	Do-	.	2f\	Do-	.	2a\	Do-	.
4C/	-mi-	.	.	4B-\	-mi-	.	4e\	-mi-	.	4g\	-mi-	.
!	!	!	!	!	!	!	!LO:LB:g=original	!	!	!	!	!
=24	=24	=24	=24	=24	=24	=24	=24	=24	=24	=24	=24	=24
*	*	*	*	*	*	*	*^	*	*	*	*	*
!	!	!	!	!	!	!	!LO:TX:a:t=P:problem=podwójna kreska taktowa w środku taktu	!	!	!	!	!	!
4F\	-num	.	.	4A\	-num	.	4ryy	4f\;>	num	.	4f\	-num	.
4r	.	.	.	4r	.	.	4r	4e\	.	.	4r	.	.
4r	.	.	.	4r	.	.	4r	4f\	.	.	4r	.	.
*	*	*	*	*	*	*	*v	*v	*	*	*	*	*
!LO:PB:g=original	!	!	!	!LO:LB:g=original	!	!	!	!	!	!	!	!
!LO:TX:a:t=P:problem=na końcu strony dopisana linijka "vide" z innej części	!	!	!	!	!	!	!	!	!	!	!	!
=25||	=25||	=25||	=25||	=25||	=25||	=25||	=25||	=25||	=25||	=25||	=25||	=25||
!	!	!	!	!	!	!	!LO:TX:a:t=Et resurexit	!	!	!	!	!
2F\	Je-	.	.	2d\	Je-	.	2f\	Je-	.	2b-\	Je-	.
4F\	-sum	.	.	4d\	-sum	.	4f\	-sum	.	4b-\	-sum	.
=26	=26	=26	=26	=26	=26	=26	=26	=26	=26	=26	=26	=26
4F\	Chris-	.	.	4d\	Chris-	.	4f\	Chri-	.	4b-\	Chri-	.
4F\	-tum	.	.	4c\	-tum	.	4f\	-stum	.	4a\	-stum	.
4r	.	.	.	4r	.	.	4r	.	.	4r	.	.
!	!	!	!	!	!	!	!	!	!	!LO:LB:g=original	!	!
=27	=27	=27	=27	=27	=27	=27	=27	=27	=27	=27	=27	=27
8C/	fi-	.	.	8B-\	fi-	.	8e\	fi-	.	8g/	fi-	.
16C/	-li-	.	.	16B-\	-li-	.	16e\	-li-	.	16g/	-li-	.
16C/	-um	.	.	16B-\	-um	.	16e\	-um	.	16g/	-um	.
8C/	de-	.	.	8B-\	de-	.	8e\	de-	.	8g/	de-	.
8C/	-i	.	.	8B-\	-i	.	8e\	-i	.	8g/	-i	.
8C/	u-	.	.	8B-\	u-	.	8e\	u-	.	8g/	u-	.
8C/	-ni-	.	.	8B-\	-ni-	.	8e\	-ni-	.	8a/	-ni-	.
=28	=28	=28	=28	=28	=28	=28	=28	=28	=28	=28	=28	=28
8C/	-ge-	.	.	8B-\	-ge-	.	8e\	-ge-	.	8g/L	-ge-	.
8F\	-ni-	.	.	8A\	-ni-	.	8c\	-ni-	.	8f/J	-ni-	.
4F\	-tum	.	.	4A\	-tum	.	4c\	-tum	.	4f/	-tum	.
4r	.	.	.	4r	.	.	4r	.	.	4r	.	.
!	!	!	!	!	!	!	!LO:LB:g=original	!	!	!	!	!
=29	=29	=29	=29	=29	=29	=29	=29	=29	=29	=29	=29	=29
2F\	vi-	.	.	2d\	vi-	.	2f\	vi-	.	2b-\	vi-	.
4F\	-si-	.	.	4d\	-si-	.	4f\	-si-	.	4b-\	-si-	.
!LO:LB:g=original	!	!	!	!LO:LB:g=original	!	!	!	!	!	!	!	!
=30	=30	=30	=30	=30	=30	=30	=30	=30	=30	=30	=30	=30
4F\	-bi-	.	.	4d\	-bi-	.	8f\	-bi-	.	4b-\	-bi-	.
.	.	.	.	.	.	.	8f\	-li-	.	.	.	.
4F\	-lium	.	.	4c\	-lium	.	4f\	-um	.	4a\	-li-	.
4r	.	.	.	4r	.	.	4r	.	.	4r	.	.
=31	=31	=31	=31	=31	=31	=31	=31	=31	=31	=31	=31	=31
8C/	Et	.	.	8c\	Et	.	8e\	Et	.	8g/	-um	.
8C/	in	.	.	8c\	in	.	8e\	in	.	8g/	Et	.
8C/	u-	.	.	8Bn\	u-	.	8e\	u-	.	8g/	in	.
8C/	-num	.	.	8B\	-num	.	8e\	-num	.	8g/	u-	.
!	!	!	!	!	!	!	!	!	!	!LO:LB:g=original	!	!
8C/	ge-	.	.	8B-X\	ge-	.	8e\	ge-	.	8g/	-ni-	.
16C/	-ni-	.	.	16B-\	-ni-	.	16e\	-ni-	.	16a/	-ge-	.
16C/	-tum	.	.	16B-\	-tum	.	16e\	-tum	.	16a/	-ni-	.
=32	=32	=32	=32	=32	=32	=32	=32	=32	=32	=32	=32	=32
4F\	fac-	.	.	(8B-\L	fa-	.	(8e\L	fac-	.	8g/	-tum	.
.	.	.	.	8A\J)	.	.	8c\J)	.	.	8f/	fa-	.
4F\	-tum	.	.	4A\	-ctum	.	4c\	-tum	.	4f/	-ctum	.
4r	.	.	.	4r	.	.	4r	.	.	4r	.	.
!	!	!	!	!	!	!	!LO:LB:g=original	!	!	!	!	!
=33	=33	=33	=33	=33	=33	=33	=33	=33	=33	=33	=33	=33
4F\	fi-	.	.	4d\	fi-	.	4f\	fi-	.	4ff\	fi-	.
4F\	-li-	.	.	4d\	-li-	.	4f\	-li-	.	4ff\	-li-	.
4F\	-um	.	.	4d\	-um	.	4f\	-um	.	4ff\	-um	.
=34	=34	=34	=34	=34	=34	=34	=34	=34	=34	=34	=34	=34
2F\	de-	.	.	(4c\	de-	.	2f\	de-	.	(4ee\	de-	.
.	.	.	.	4A\)	.	.	.	.	.	4cc\)	.	.
4F\	-i	.	.	4c\	-i	.	4f\	-i	.	4ee\	-i	.
!LO:LB:g=original	!	!	!	!LO:LB:g=original	!	!	!	!	!	!	!	!
=35	=35	=35	=35	=35	=35	=35	=35	=35	=35	=35	=35	=35
2F\	u-	.	.	(4B-\	u-	.	2f\	u-	.	2dd\	u-	.
.	.	.	.	4d\)	.	.	.	.	.	.	.	.
4F\	-ni-	.	.	4e\	-ni	.	4b-\	-ni-	.	4dd\	-ni-	.
=36	=36	=36	=36	=36	=36	=36	=36	=36	=36	=36	=36	=36
8.F\	-ge-	.	.	8.e\	ge-	.	8.b-\	-ge-	.	8.dd\	-ge-	.
16F\	-ni-	.	.	16f\	-ni-	.	16a\	-ni-	.	16cc\	-ni-	.
4F\	-tum	.	.	4f\	-tum	.	4a\	-tum	.	4cc\	-tum	.
4r	.	.	.	4r	.	.	4r	.	.	4r	.	.
!	!	!	!	!	!	!	!	!	!	!LO:LB:g=original	!	!
=37	=37	=37	=37	=37	=37	=37	=37	=37	=37	=37	=37	=37
2A\	et	.	.	2c#X\	Et	.	2g\	et	.	2ee\	et	.
4A\	in	.	.	4c#\	in	.	4g\	in	.	4ee\	in	.
=38	=38	=38	=38	=38	=38	=38	=38	=38	=38	=38	=38	=38
2A\	u-	.	.	2d\	u-	.	2f#X\	u-	.	(4ee\	u-	.
.	.	.	.	.	.	.	.	.	.	4ee-X\)	.	.
4A-X\	-num	.	.	4cn\	-ni-	.	4f#\	-ni-	.	4dd\	-ni-	.
!	!	!	!	!	!	!	!LO:LB:g=original	!	!	!	!	!
=39	=39	=39	=39	=39	=39	=39	=39	=39	=39	=39	=39	=39
4G\	ge-	.	.	4Bn\	-ge-	.	4fn\	-ge-	.	4dd\	-ge-	.
4G\	-ni-	.	.	4B\	-ni-	.	4f\	-ni-	.	4dd\	-ni-	.
4G\	-tum	.	.	4B\	-tum	.	4f\	-tum	.	4dd\	-tum	.
=40	=40	=40	=40	=40	=40	=40	=40	=40	=40	=40	=40	=40
4G\	fac-	.	.	4Bn\	fac-	.	4f\	fac-	.	4dd\	fac-	.
4C/	-tum	.	.	4c\	-tum	.	4e\	-tum	.	4cc\	-tum	.
4r	.	.	.	4r	.	.	4r	.	.	4r	.	.
!LO:LB:g=original	!	!	!	!LO:LB:g=original	!	!	!	!	!	!	!	!
=41	=41	=41	=41	=41	=41	=41	=41	=41	=41	=41	=41	=41
*^	*	*	*	*	*	*	*	*	*	*	*	*
4.B-\	4.C\	con	.	.	4.c\	con	.	4.e\	con	.	4.g\	con	.
8B-\	8C\	sub-	.	.	8c\	sub-	.	8e\	sub-	.	8g\	sub-	.
8A\	8C\	-stan-	.	.	8c\	-stan-	.	8f\	-stanc-	.	8a\	-stan-	.
8G\	8BB-\	-ci-	.	.	8B-X\	-ti-	.	8g\	-ti-	.	8b-\	-ti-	.
*v	*v	*	*	*	*	*	*	*	*	*	*	*	*
=42	=42	=42	=42	=42	=42	=42	=42	=42	=42	=42	=42	=42
4F\	-a-	.	.	(4A\	-a-	.	(4a\	-a-	.	(4cc\	-a-	.
4E\	.	.	.	4G\)	.	.	4b-\)	.	.	4dd\)	.	.
4F\	-lem	.	.	4A\	-lem	.	4a\	-lem	.	4cc\	-lem	.
!	!	!	!	!	!	!	!	!	!	!LO:LB:g=original	!	!
=43	=43	=43	=43	=43	=43	=43	=43	=43	=43	=43	=43	=43
8C/	con	.	.	8B-\	con	.	8e\	con	.	8g\	con	.
8C/	sub-	.	.	8B-\	sub-	.	8e\	sub-	.	8g\	sub-	.
8C/	-stan-	.	.	8B-\	-stan-	.	8d#X\	-stan-	.	8f#X\	-stan-	.
8C/	-ci-	.	.	8B-\	-ti-	.	8e\	-ci-	.	8g\	-ti-	.
!	!	!	!	!	!	!	!LO:LB:g=original	!	!	!	!	!
8C/	-a-	.	.	8A\	-a-	.	8f\	-a-	.	8a\	-a-	.
8C/	-lem	.	.	8G\	-lem	.	8g\	-lem	.	8b-\	-lem	.
=44	=44	=44	=44	=44	=44	=44	=44	=44	=44	=44	=44	=44
(4.F\	Pa-	.	.	(4.A\	Pa-	.	(4.a\	Pa-	.	(4.cc\	Pa-	.
8E\)	.	.	.	8G\)	.	.	8b-\)	.	.	8dd\)	.	.
4F\	-tri	.	.	4A\	-tri	.	4a\	-tri	.	4cc\	-tri	.
!LO:LB:g=original	!	!	!	!LO:LB:g=original	!	!	!	!	!	!	!	!
=45	=45	=45	=45	=45	=45	=45	=45	=45	=45	=45	=45	=45
2F\	per	.	.	2c\	per	.	2a\	per-	.	2cc\	per-	.
4F\	quem	.	.	4c\	quem	.	4a\	-quem	.	4cc\	-quem	.
=46	=46	=46	=46	=46	=46	=46	=46	=46	=46	=46	=46	=46
4B-\	om-	.	.	4d\	om-	.	4a\	om-	.	4cc\	o-	.
4B-\	-ni-	.	.	4d\	-ni-	.	4g\	-ni-	.	4b-\	-mni-	.
4BB-/	-a	.	.	4d\	-a	.	4f\	-a	.	4a\	-a	.
=47	=47	=47	=47	=47	=47	=47	=47	=47	=47	=47	=47	=47
2C/	fa-	.	.	(4B-\	fa-	.	(4e\	fac-	.	(4g\	fa-	.
.	.	.	.	4A\)	.	.	4f\)	.	.	4a\)	.	.
4C/	-cta	.	.	4G\	-cta	.	4e\	-ta	.	4b-\	-cta	.
!	!	!	!	!	!	!	!	!	!	!LO:LB:g=original	!	!
=48	=48	=48	=48	=48	=48	=48	=48	=48	=48	=48	=48	=48
2FF/	sunt	.	.	(4B-\	sunt	.	(4e\	sunt	.	(4g\	sunt	.
.	.	.	.	4c\)	.	.	4f\)	.	.	4a\)	.	.
8r	.	.	.	8r	.	.	8r	.	.	8r	.	.
8F\	qui	.	.	8c\	qui	.	8f\	qui	.	8a\	qui	.
!	!	!	!	!	!	!	!LO:LB:g=original	!	!	!	!	!
=49	=49	=49	=49	=49	=49	=49	=49	=49	=49	=49	=49	=49
2B-\	[[pter]]-	pro	.	2c\	pro-	.	2e\	pro-	.	2g\	pro-	.
8A\	-pter	.	.	8c\	-pter	.	8f\	-pter	.	8a\	-pter	.
8G\	nos	.	.	8c\	nos	.	8g\	nos	.	8b-\	nos	.
=50	=50	=50	=50	=50	=50	=50	=50	=50	=50	=50	=50	=50
4.F\	ho-	.	.	4.A\	ho-	.	4.a\	ho-	.	4.cc\	ho-	.
8E\	-mi-	.	.	8G\	-mi-	.	8b-\	-mi-	.	8dd\	-mi-	.
4F\	-nes	.	.	(8A\L	-nes	.	(8a\L	-nes	.	(8cc\L	-nes	.
.	.	.	.	8c\J)	.	.	8f\J)	.	.	8a\J)	.	.
!LO:LB:g=original	!	!	!	!LO:LB:g=original	!	!	!	!	!	!	!	!
=51	=51	=51	=51	=51	=51	=51	=51	=51	=51	=51	=51	=51
*	*	*	*	*	*	*	*	*	*	*^	*	*
8C/	qui	.	.	8B-\	qui	.	8e\	qui	.	8g/	2ryy	qui	.
8C/	pro-	.	.	8B-\	pro-	.	8e\	pro-	.	8g/	.	pro-	.
4C/	-pter	.	.	4B-\	-pter	.	(8d#X\L	-pter	.	(8f#X/L	.	-pter	.
.	.	.	.	.	.	.	8e\J)	.	.	8g/J)	.	.	.
4C/	nos	.	.	(8A\L	nos	.	8f\L	nos	.	8a/	8a\L	nos	.
.	.	.	.	8G\J)	.	.	8g\J	.	.	8b-\	8b-\J	.	.
*	*	*	*	*	*	*	*	*	*	*v	*v	*	*
=52	=52	=52	=52	=52	=52	=52	=52	=52	=52	=52	=52	=52
4.F\	ho-	.	.	4.A\	ho-	.	4.a\	ho-	.	4.cc\	ho-	.
8E\	-mi-	.	.	8G\	-mi-	.	8b-\	-mi-	.	8dd\	-mi-	.
4F\	-nes	.	.	4A\	-nes	.	4a\	-nes	.	4cc\	-nes	.
!	!	!	!	!	!	!	!	!	!	!LO:LB:g=original	!	!
=53	=53	=53	=53	=53	=53	=53	=53	=53	=53	=53	=53	=53
2.D\	et	.	.	2.d\	et	.	2.a\	et	.	2.ff\	et	.
!	!	!	!	!	!	!	!LO:PB:g=original	!	!	!	!	!
=54	=54	=54	=54	=54	=54	=54	=54	=54	=54	=54	=54	=54
4A\	pro-	.	.	4d\	pro-	.	4a\	pro-	.	4ff\	pro-	.
4A\	-pter	.	.	4c#X\	-pter	.	4a\	-pter	.	4ee\	-pter	.
4r	.	.	.	4r	.	.	4r	.	.	4r	.	.
=55	=55	=55	=55	=55	=55	=55	=55	=55	=55	=55	=55	=55
2.B-\	et	.	.	2.B-\	et	.	2.f\	et	.	2.dd\	et	.
=56	=56	=56	=56	=56	=56	=56	=56	=56	=56	=56	=56	=56
4F\	pro-	.	.	4B-\	pro-	.	4f\	pro-	.	4dd\	pro-	.
4F\	-pter	.	.	4A\	-pter	.	4f\	-pter	.	4cc\	-pter	.
4r	.	.	.	4r	.	.	4r	.	.	4r	.	.
!LO:LB:g=original	!	!	!	!LO:LB:g=original	!	!	!	!	!	!	!	!
=57	=57	=57	=57	=57	=57	=57	=57	=57	=57	=57	=57	=57
2.BB-/	[[et	de	.	2.d\	de-	.	2.f\	de-	.	2.b-\	de-	.
=58	=58	=58	=58	=58	=58	=58	=58	=58	=58	=58	=58	=58
4F\	pro-	scen-	.	4c\	-scen-	.	4f\	-scen-	.	4a\	-scen-	.
4F\	-pter]]	-dit	.	4c\	-dit	.	4f\	-dit	.	4a\	-dit	.
4BB-/	de	.	.	4d\	de	.	4f\	de	.	4b-\	de-	.
=59	=59	=59	=59	=59	=59	=59	=59	=59	=59	=59	=59	=59
2.C/	ce-	.	.	(2c\	ce-	.	(4f\	ce-	.	(2a\	-coe-	.
.	.	.	.	.	.	.	2e\)	.	.	.	.	.
.	.	.	.	4B-\)	.	.	.	.	.	4g\)	.	.
!	!	!	!	!	!	!	!LO:LB:g=original	!	!	!LO:LB:g=original	!	!
=60	=60	=60	=60	=60	=60	=60	=60	=60	=60	=60	=60	=60
4F\	-lis	.	.	4A\	-lis	.	4c\	-lis	.	4f\	-lis	.
4r	.	.	.	4r	.	.	4r	.	.	4r	.	.
!LO:TX:a:t=Et in carnatus	!	!	!	!LO:TX:a:t=Et in carnatus. Andantino	!	!	!	!	!	!LO:TX:a:t=Et incarnatus. Andantino	!	!
4r;	.	.	.	4r;	.	.	4r;	.	.	4r;	.	.
!LO:LB:g=original	!	!	!	!LO:LB:g=original	!	!	!	!	!	!LO:PB:g=original	!	!
=61	=61	=61	=61	=61	=61	=61	=61	=61	=61	=61	=61	=61
*k[b-e-]	*	*	*	*k[b-e-]	*	*	*k[b-e-]	*	*	*k[b-e-]	*	*
*M6/8	*	*	*	*M6/8	*	*	*M6/8	*	*	*M6/8	*	*
!LO:TX:a:t=Andantino	!	!	!	!	!	!	!LO:TX:a:t=Andante	!	!LO:DY:b	!LO:TX:a:t=Et incarnatus	!	!
8BB-/	Et	.	.	8F/	Et	.	8d\	Et	p	8b-\	Et	.
8BB-/	in-	.	.	8F/	in-	.	8d\	in-	.	8b-\	in-	.
8BB-/	-car-	.	.	8F/	-car-	.	8d\	-car-	.	8b-\	-car-	.
4BB-/	-na-	.	.	4G/	-na-	.	4e-\	-na-	.	(8b-\L	-na-	.
.	.	.	.	.	.	.	.	.	.	8a\J)	.	.
8BB-/	-tus	.	.	8G/	-tus	.	8e-\	-tus	.	8g\	-tus	.
=62	=62	=62	=62	=62	=62	=62	=62	=62	=62	=62	=62	=62
(4BB-/	est	.	.	4F/	est	.	4d\	est	.	4f/	est	.
8D/)	.	.	.	8r	.	.	8r	.	.	8r	.	.
(4F\	de	.	.	4r	.	.	4r	.	.	4r	.	.
8D\)	.	.	.	8r	.	.	8r	.	.	8r	.	.
=63	=63	=63	=63	=63	=63	=63	=63	=63	=63	=63	=63	=63
4.BB-/	spi-	.	.	4F/	de	.	4d\	de	.	4b-\	de	.
.	.	.	.	8F/	spi-	.	8d\	spi-	.	8b-\	spi-	.
4BB-/	-ri-	.	.	4G/	-ri-	.	4e-\	-ri-	.	(8b-\L	-ri-	.
.	.	.	.	.	.	.	.	.	.	8a\J)	.	.
8BB-/	-tu	.	.	8G/	-tu	.	8e-\	-tu	.	8g\	-tu	.
!	!	!	!	!	!	!	!LO:LB:g=original	!	!	!	!	!
=64	=64	=64	=64	=64	=64	=64	=64	=64	=64	=64	=64	=64
(4BB-/	San-	.	.	8B-\	San-	.	8e-\	san-	.	8g\	San-	.
.	.	.	.	8B-\	-cto	.	8d\	-cto	.	8f\	-cto	.
8D/)	.	.	.	8r	.	.	8r	.	.	8r	.	.
4F\	-cto	.	.	8r	.	.	8r	.	.	8r	.	.
.	.	.	.	8d\	ex	.	8f\	ex	.	8f\	ex	.
8r	.	.	.	8B-\	Ma-	.	8f\	Ma-	.	8b-\	Ma-	.
!LO:LB:g=original	!	!	!	!	!	!	!	!	!	!LO:LB:g=original	!	!
=65	=65	=65	=65	=65	=65	=65	=65	=65	=65	=65	=65	=65
4E-\	ex	.	.	4.c\	-ri-	.	4.g\	-ri-	.	4.cc\	-ri-	.
8E-\	Ma-	.	.	.	.	.	.	.	.	.	.	.
4BBn/	-ri-	.	.	4.G\	-a	.	4.g\	-a	.	4.dd\	-a	.
8BB/	-a	.	.	.	.	.	.	.	.	.	.	.
!	!	!	!	!LO:LB:g=original	!	!	!	!	!	!	!	!
=66	=66	=66	=66	=66	=66	=66	=66	=66	=66	=66	=66	=66
4C/	Vir-	.	.	4G/	Vir-	.	4g\	Vir-	.	4ff\	Vir-	.
8C/	-gi-	.	.	8G/	-gi-	.	8g\	-gi-	.	8een\	-gi-	.
4F\	-ne	.	.	4A\	-ne	.	4f\	-ne	.	4ee-X\	-ne	.
8F\	et	.	.	8f\	et	.	8a\	et	.	8cc\	et	.
=67	=67	=67	=67	=67	=67	=67	=67	=67	=67	=67	=67	=67
4BB-/	ho-	.	.	4f\	ho-	.	4b-\	ho-	.	4dd\	ho-	.
8E-\	-mo	.	.	8f\	-mo	.	8a\	-mo	.	8cc\	-mo	.
4D\	fac-	.	.	4f\	fac-	.	4f\	fac-	.	4b-\	fac-	.
8BB-/	-tus	.	.	8f\	-tus	.	8cc\	-tus	.	8dd\	-tus	.
=68	=68	=68	=68	=68	=68	=68	=68	=68	=68	=68	=68	=68
!	!	!	!	!	!	!	!LO:TX:a:t=P:problem=dźwięki przekreślone ołówkiem, dopisane a nad nutami	!	!	!	!	!
[4.FF/	est	.	.	(4.f\	est	.	[4.b-\	est.	.	[4.ff\	est	.
8FF/]	.	.	.	8f\)	.	.	4b-\]	.	.	8ff\]	.	.
8r	.	.	.	8r	.	.	.	.	.	8r	.	.
8r	.	.	.	8r	.	.	8r	.	.	8r	.	.
!	!	!	!	!	!	!	!LO:LB:g=original	!	!	!	!	!
=69	=69	=69	=69	=69	=69	=69	=69	=69	=69	=69	=69	=69
8BB-/	Et	.	.	8F/	Et	.	8d\	Et	.	8b-\	Et	.
8BB-/	in-	.	.	8F/	in-	.	8d\	in-	.	8b-\	in-	.
8BB-/	-car-	.	.	8F/	-car-	.	8d\	-car-	.	8b-\	-car-	.
4BB-/	-na-	.	.	4G/	-na-	.	4e-\	-na-	.	(8b-\L	-na-	.
.	.	.	.	.	.	.	.	.	.	8a\J)	.	.
8BB-/	-tus	.	.	8G/	-tus	.	8e-\	-tus	.	8g\	-tus	.
!LO:LB:g=original	!	!	!	!	!	!	!	!	!	!	!	!
=70	=70	=70	=70	=70	=70	=70	=70	=70	=70	=70	=70	=70
(4BB-/	est	.	.	4F/	est	.	4d\	est	.	4f\	est	.
8D/)	.	.	.	8r	.	.	8r	.	.	8r	.	.
(4F\	de	.	.	4r	.	.	4r	.	.	4r	.	.
8D\)	.	.	.	8r	.	.	8r	.	.	8r	.	.
!	!	!	!	!LO:LB:g=original	!	!	!	!	!	!LO:LB:g=original	!	!
=71	=71	=71	=71	=71	=71	=71	=71	=71	=71	=71	=71	=71
4.BB-/	Spi-	.	.	4F/	de	.	4d\	de	.	4b-\	de	.
.	.	.	.	8F/	spi-	.	8d\	spi-	.	8b-\	spi-	.
4BB-/	-ri-	.	.	4G/	-ri-	.	4e-\	-ri-	.	(8b-\L	-ri-	.
.	.	.	.	.	.	.	.	.	.	8a\J)	.	.
8BB-/	-tu	.	.	8G/	-tu	.	8e-\	-tu	.	8g\	-tu	.
=72	=72	=72	=72	=72	=72	=72	=72	=72	=72	=72	=72	=72
(4BB-/	San-	.	.	8B-\	San-	.	8e-\	san-	.	8g\	San-	.
.	.	.	.	8B-\	-cto	.	8d\	-cto	.	8f\	-cto	.
8D/)	.	.	.	8r	.	.	8r	.	.	8r	.	.
4F\	-cto	.	.	8r	.	.	8r	.	.	8r	.	.
.	.	.	.	8d\	ex	.	8f\	ex	.	8f\	ex	.
8r	.	.	.	8B-\	Ma-	.	8f\	Ma-	.	8b-\	Ma-	.
!	!	!	!	!	!	!	!LO:LB:g=original	!	!	!	!	!
=73	=73	=73	=73	=73	=73	=73	=73	=73	=73	=73	=73	=73
!LO:TX:a:t=1	!	!	!	!	!	!	!	!	!	!	!	!
2.r	.	.	.	4.F/	-ri-	.	4.f\	-ri-	.	4.dd\	-ri-	.
.	.	.	.	4.A/	-a	.	4.e-\	-a	.	4.cc\	-a	.
=74	=74	=74	=74	=74	=74	=74	=74	=74	=74	=74	=74	=74
4r	.	.	.	4B-\	Vir-	.	4d\	Vir-	.	4b-\	Vir-	.
8r	.	.	.	8B-\	-gi-	.	8d\	-gi-	.	8b-\	-gi-	.
4r	.	.	.	4E-/	-ne	.	4f\	-ne	.	4a\	-ne	.
8E-\	et	.	.	8E-/	et	.	8e-\	et	.	8g\	et	.
=75	=75	=75	=75	=75	=75	=75	=75	=75	=75	=75	=75	=75
4.F\	ho-	.	.	4F/	ho-	.	4d\	ho-	.	4f\	ho-	.
.	.	.	.	8F/	-mo	.	8d\	-mo-	.	8b-\	-mo	.
4.F\	-mo	.	.	4F/	fac-	.	4e-\	-fac-	.	(8a\L	fac-	.
.	.	.	.	.	.	.	.	.	.	8g\J)	.	.
.	.	.	.	8F/	-tus	.	8e-\	-tus	.	8a\	-tus	.
!LO:LB:g=original	!	!	!	!LO:LB:g=original	!	!	!	!	!	!LO:LB:g=original	!	!
=76	=76	=76	=76	=76	=76	=76	=76	=76	=76	=76	=76	=76
4F\	fac-	.	.	4B-\	est	.	4d\	est	.	4b-\	est	.
8D\	-tus	.	.	8r	.	.	8r	.	.	8r	.	.
4BB-/	est	.	.	4r	.	.	4r	.	.	4r	.	.
8r	.	.	.	8r	.	.	8r	.	.	8r	.	.
=77	=77	=77	=77	=77	=77	=77	=77	=77	=77	=77	=77	=77
!LO:TX:a:t=1	!	!	!	!	!	!	!	!	!	!	!	!
2.r	.	.	.	4B-\	Cru-	.	4e-\	Cru-	.	4g/	Cru-	.
.	.	.	.	8B-\	-ci-	.	8e-\	-ci-	.	8g/	-ci-	.
.	.	.	.	4A\	-fi-	.	4e-\	-fi-	.	4g-X/	-fi-	.
.	.	.	.	8A\	-xus	.	8e-\	-xus	.	8g-/	-csus	.
!	!	!	!	!	!	!	!LO:LB:g=original	!	!	!	!	!
=78	=78	=78	=78	=78	=78	=78	=78	=78	=78	=78	=78	=78
16B-\	E-	.	.	16B-\	e-	.	16d\	e-	.	16f/	e-	.
16B-\	-ti-	.	.	16B-\	-ti-	.	16d\	-ti-	.	16f/	-ti-	.
8B-\	-am	.	.	8B-\	-am	.	8d\	-am	.	8f/	-am	.
8A\	pro	.	.	8r	.	.	8r	.	.	8r	.	.
8B-\	no-	.	.	4r	.	.	4r	.	.	4r	.	.
8BB-/	-bis	.	.	.	.	.	.	.	.	.	.	.
8r	.	.	.	8B-\	sunt	.	8d\	sunt	.	8f/	sum	.
=79	=79	=79	=79	=79	=79	=79	=79	=79	=79	=79	=79	=79
!LO:TX:a:t=1	!	!	!	!	!	!	!	!	!	!	!	!
2.r	.	.	.	4B-\	Pon-	.	4e-\	pon-	.	4g/	Pon-	.
.	.	.	.	8B-\	-ti-	.	8e-\	-ti-	.	8g/	-ti-	.
.	.	.	.	4A\	-o	.	4e-\	-o	.	4g-X/	-o	.
.	.	.	.	8A\	pi-	.	8e-\	pi-	.	8g-/	pi-	.
=80	=80	=80	=80	=80	=80	=80	=80	=80	=80	=80	=80	=80
8r	.	.	.	8B-\	-la-	.	8d\	-la-	.	8f/	-la-	.
8B-\	pa-	.	.	8B-\	-to	.	8d\	-to	.	8f/	-to	.
8A\	-sus	.	.	8r	.	.	8r	.	.	8r	.	.
8B-\	pa-	.	.	4r	.	.	4r	.	.	4r	.	.
8BB-/	-sus	.	.	.	.	.	.	.	.	.	.	.
8r	.	.	.	8r	.	.	8r	.	.	8r	.	.
!LO:LB:g=original	!	!	!	!LO:PB:g=original	!	!	!	!	!	!LO:LB:g=original	!	!
=81	=81	=81	=81	=81	=81	=81	=81	=81	=81	=81	=81	=81
4D\	et	.	.	4A\	et	.	4f#X\	et	.	4dd\	et	.
8D\	se-	.	.	8A\	se-	.	8f#\	se-	.	8dd\	se-	.
4D\	-pul-	.	.	4B-\	-pul-	.	4g\	-pul-	.	4dd\	-pul-	.
8D\	-tus	.	.	8B-\	-tus	.	8g\	-tus	.	8dd\	-tus	.
!	!	!	!	!	!	!	!LO:LB:g=original	!	!	!	!	!
=82	=82	=82	=82	=82	=82	=82	=82	=82	=82	=82	=82	=82
4D\	est	.	.	4A\	est	.	4f#X\	est	.	4dd\	est	.
8r	.	.	.	8r	.	.	8r	.	.	8r	.	.
4r	.	.	.	4r	.	.	4r	.	.	4r	.	.
8r	.	.	.	8r	.	.	8r	.	.	8r	.	.
=83	=83	=83	=83	=83	=83	=83	=83	=83	=83	=83	=83	=83
4.BB-/	et	.	.	4.d\	et	.	4.fn\	et	.	4.b-\	et	.
4.BB-/	se-	.	.	4.d\	se-	.	4.f\	se-	.	4.a\	se-	.
=84	=84	=84	=84	=84	=84	=84	=84	=84	=84	=84	=84	=84
4C/	-pul-	.	.	4c\	-pul-	.	(8f\L	-pul-	.	4g\	-pul-	.
.	.	.	.	.	.	.	8en\J)	.	.	.	.	.
8C/	-tus	.	.	8Bn\	-tus	.	8d\	-tus	.	8g\	-tus	.
4C/	est	.	.	4B-X\	est	.	4e\	est	.	4g\	est	.
!LO:TX:a:t=Et resurrexit	!	!	!	!LO:TX:a:t=Et resurrexit	!	!	!	!	!	!	!	!
8r;	.	.	.	8r;	.	.	8r;	.	.	8r;	.	.
!LO:LB:g=original	!	!	!	!LO:LB:g=original	!	!	!	!	!	!LO:LB:g=original	!	!
=85||	=85||	=85||	=85||	=85||	=85||	=85||	=85||	=85||	=85||	=85||	=85||	=85||
*k[b-]	*	*	*	*k[b-]	*	*	*k[b-]	*	*	*k[b-]	*	*
*M3/4	*	*	*	*M3/4	*	*	*M3/4	*	*	*M3/4	*	*
!	!	!	!	!	!	!LO:DY:b	!LO:TX:a:t=tempo 1mo	!	!LO:DY:b	!LO:TX:a:t=Eresurrexit	!	!LO:DY:b
4F\	Et	.	.	4A\	Et	f	4f\	Et	f	4f/	Et	f
4F\	re-	.	.	4A\	re-	.	4f\	re-	.	4f/	re-	.
4F\	-sur-	.	.	4A\	-sur-	.	4f\	-sur-	.	4f/	-sur-	.
=86	=86	=86	=86	=86	=86	=86	=86	=86	=86	=86	=86	=86
4F\	-re-	.	.	4c\	-re-	.	4f\	-re-	.	4a/	-re-	.
4F\	-xit	.	.	4A\	-xit	.	4f\	-xit	.	4f/	-xit	.
4r	.	.	.	4r	.	.	4r	.	.	4r	.	.
!	!	!	!	!	!	!	!LO:LB:g=original	!	!	!	!	!
=87	=87	=87	=87	=87	=87	=87	=87	=87	=87	=87	=87	=87
4F\	ter-	.	.	4c\	ter-	.	4f\	ter-	.	4a\	ter-	.
4F\	-ci-	.	.	4c\	-ci-	.	4f\	-ci-	.	4a\	-ti-	.
4F\	-a	.	.	4c\	-a	.	4f\	-a	.	4a\	-a	.
=88	=88	=88	=88	=88	=88	=88	=88	=88	=88	=88	=88	=88
4F\	di-	.	.	4A\	di-	.	4a\	di-	.	4cc\	di-	.
4F\	-e	.	.	4c\	-e	.	4f\	-e	.	4a\	-e	.
8r	.	.	.	8r	.	.	8r	.	.	8r	.	.
8F\	se-	.	.	8f\	se-	.	8a\	se-	.	8cc\	se-	.
=89	=89	=89	=89	=89	=89	=89	=89	=89	=89	=89	=89	=89
4F#X\	-cun-	.	.	4d\	-cun-	.	4a\	-cun-	.	4dd\	-cun-	.
4F#\	-dum	.	.	4d\	-dum	.	4a\	-dum	.	4dd\	-dum	.
4F#\	scrip-	.	.	4d\	scrip-	.	4a\	scri-	.	4cc\	scrip-	.
!LO:LB:g=original	!	!	!	!LO:LB:g=original	!	!	!	!	!	!	!	!
=90	=90	=90	=90	=90	=90	=90	=90	=90	=90	=90	=90	=90
(4G\	-tu-	.	.	(4d\	-ptu-	.	2g\	-ptu-	.	(4b-\	-tu-	.
4E\)	.	.	.	4c\)	.	.	.	.	.	4cc\)	.	.
4E\	-ras	.	.	4c\	-ras	.	4g\	-ras	.	4b-\	-ras	.
!	!	!	!	!	!	!	!	!	!	!LO:LB:g=original	!	!
=91	=91	=91	=91	=91	=91	=91	=91	=91	=91	=91	=91	=91
8F\	Et	.	.	4c\	Et	.	8f\	et	.	8a\	et	.
8F\	as-	.	.	.	.	.	8f\	as-	.	8a\	as-	.
4E\	-cen-	.	.	4c\	as-	.	4g\	-cen-	.	4b-\	-cen-	.
8F\	-dit	.	.	4c\	-cen-	.	8f\	-dit	.	8a\	-dit	.
8F\	in	.	.	.	.	.	8f\	in	.	8a\	in	.
!	!	!	!	!	!	!	!LO:LB:g=original	!	!	!	!	!
=92	=92	=92	=92	=92	=92	=92	=92	=92	=92	=92	=92	=92
4C/	ce-	.	.	4c\	-dit	.	4f\	ce-	.	4a\	ce-	.
4C/	-lum	.	.	4c\	se-	.	4e\	-lum	.	4g\	-lum	.
4r	.	.	.	4c\	-det	.	4r	.	.	4r	.	.
=93	=93	=93	=93	=93	=93	=93	=93	=93	=93	=93	=93	=93
!	!	!	!	!	!	!	!	!	!LO:DY:b	!	!	!
4F\	se-	.	.	4Bn\	se-	.	4g\	se-	mf	4dd\	se-	.
4F\	-det	.	.	4B\	-det	.	4g\	-det	.	4dd\	-det	.
4F\	ad	.	.	4r	.	.	4g\	ad	.	4dd\	ad	.
=94	=94	=94	=94	=94	=94	=94	=94	=94	=94	=94	=94	=94
!	!	!	!	!	!	!	!	!	!	!LO:N:vis=4.	!	!
8.E\	dex-	.	.	4c\	Pa-	.	8.g\	dex-	.	8.cc\	dex-	.
!	!	!	!	!	!	!	!	!	!	!LO:N:vis=8	!	!
16C\	-te-	.	.	.	.	.	16g\	-te-	.	16ee\	-te-	.
4C\	-ram	.	.	4c\	-tris	.	4g\	-ram	.	4ee\	-ram	.
4r	.	.	.	4c\	Et	.	4r	.	.	4r	.	.
!LO:PB:g=original	!	!	!	!	!	!	!	!	!	!	!	!
=95	=95	=95	=95	=95	=95	=95	=95	=95	=95	=95	=95	=95
4F\	Pa-	.	.	8.Bn\	i-	.	4g\	Pa-	.	4dd\	Pa-	.
.	.	.	.	16B\	-te-	.	.	.	.	.	.	.
4F\	-tris	.	.	4B\	-rum	.	4g\	-tris	.	4dd\	-tris	.
4F\	Et	.	.	4r	.	.	4g\	et	.	4dd\	Et	.
!	!	!	!	!LO:LB:g=original	!	!	!	!	!	!LO:LB:g=original	!	!
=96	=96	=96	=96	=96	=96	=96	=96	=96	=96	=96	=96	=96
8.E\	i-	.	.	4r	.	.	8.g\	in-	.	8.cc\	i[[n]]-	.
16C\	-te-	.	.	.	.	.	16g\	-te-	.	16ee\	-te-	.
4C\	-rum	.	.	4r	.	.	4g\	-rum	.	4ee\	-rum	.
4C\	ven-	.	.	4c\	ven-	.	4c\	ven-	.	4cc\	ven-	.
!	!	!	!	!	!	!	!LO:LB:g=original	!	!	!	!	!
=97	=97	=97	=97	=97	=97	=97	=97	=97	=97	=97	=97	=97
2F\	-tu-	.	.	2A\	-tu-	.	2f\	-tu-	.	2cc\	-tu-	.
4F\	-rus	.	.	4A\	-rus	.	4f\	-rus	.	4cc\	-rus	.
=98	=98	=98	=98	=98	=98	=98	=98	=98	=98	=98	=98	=98
2E\	est	.	.	2A\	est	.	2g\	est	.	2cc#X\	est	.
4E\	cum	.	.	4A\	cum	.	4g\	cum	.	4cc#\	cum	.
=99	=99	=99	=99	=99	=99	=99	=99	=99	=99	=99	=99	=99
2D\	glo-	.	.	2A\	glo-	.	2f\	glo-	.	2dd\	glo-	.
4D\	-ri-	.	.	4A\	-ri-	.	4f\	-ri-	.	4dd\	-ri-	.
=100	=100	=100	=100	=100	=100	=100	=100	=100	=100	=100	=100	=100
2AA/	-a	.	.	2A\	-a	.	2e\	-a	.	2cc#X\	-a	.
4r	.	.	.	4r	.	.	4r	.	.	4r	.	.
!LO:LB:g=original	!	!	!	!	!	!	!	!	!	!	!	!
=101	=101	=101	=101	=101	=101	=101	=101	=101	=101	=101	=101	=101
2BB-/	ju-	.	.	2G/	ju-	.	2e\	ju-	.	2ccn\	ju-	.
4BB-/	-di-	.	.	4G/	-di-	.	4e\	-di-	.	4cc\	-di-	.
=102	=102	=102	=102	=102	=102	=102	=102	=102	=102	=102	=102	=102
2AA/	-ca-	.	.	2c\	-ca-	.	2f\	-ca-	.	2cc\	-ca-	.
4BB-/	-re	.	.	4G/	-re	.	4d\	-re	.	4b-\	-re	.
!	!	!	!	!LO:LB:g=original	!	!	!	!	!	!LO:LB:g=original	!	!
=103	=103	=103	=103	=103	=103	=103	=103	=103	=103	=103	=103	=103
2.C/	vi-	.	.	(4F/	vi-	.	2.f\	vi-	.	2.a\	vi-	.
.	.	.	.	4A/)	.	.	.	.	.	.	.	.
.	.	.	.	4c\	.	.	.	.	.	.	.	.
!	!	!	!	!	!	!	!LO:PB:g=original	!	!	!	!	!
=104	=104	=104	=104	=104	=104	=104	=104	=104	=104	=104	=104	=104
4C/	-vos	.	.	4c\	-vos	.	4e\	-vos	.	4g\	-vos	.
4r	.	.	.	4r	.	.	4r	.	.	4r	.	.
4C/	et	.	.	4c\	et	.	4e\	et	.	4g\	et	.
=105	=105	=105	=105	=105	=105	=105	=105	=105	=105	=105	=105	=105
!	!	!	!LO:DY:b	!	!	!LO:DY:b	!	!	!	!	!	!
(4C/	mor-	.	p	(4c\	mor-	p	2f\	mor-	.	2a-X\	mor-	.
4BBn/)	.	.	.	4d\)	.	.	.	.	.	.	.	.
4BB/	-tu-	.	.	4d\	-tu-	.	4f\	-tu-	.	4a-\	-tu-	.
=106	=106	=106	=106	=106	=106	=106	=106	=106	=106	=106	=106	=106
4C/	-os	.	.	4c\	-os	.	4e\	-os	.	4g\	-os	.
4r	.	.	.	4r	.	.	4r	.	.	4r	.	.
4C/	et	.	.	4G/	et	.	4c\	et	.	4e/	et	.
=107	=107	=107	=107	=107	=107	=107	=107	=107	=107	=107	=107	=107
2C/	mor-	.	.	2A-X\	mor-	.	2c\	mor-	.	2f/	mor-	.
4C/	-tu-	.	.	4A-\	-tu-	.	4c\	-tu-	.	4f/	-tu-	.
!LO:LB:g=original	!	!	!	!	!	!	!	!	!	!	!	!
=108	=108	=108	=108	=108	=108	=108	=108	=108	=108	=108	=108	=108
2.C;\	-os	.	.	2.G;\	-os	.	2.c;\	-os	.	2.e;/	-os	.
=109||	=109||	=109||	=109||	=109||	=109||	=109||	=109||	=109||	=109||	=109||	=109||	=109||
2C\	cu-	.	.	2E/	cu-	.	2G/	cu-	.	2c/	cu-	.
4C\	-ius	.	.	4E/	-jus	.	4G/	-jus	.	4c/	-jus	.
!	!	!	!	!LO:LB:g=original	!	!	!	!	!	!	!	!
=110	=110	=110	=110	=110	=110	=110	=110	=110	=110	=110	=110	=110
!	!	!	!LO:HP:t=cres	!	!	!LO:HP:t=cres	!	!	!	!	!	!
2C\	reg-	.	<	2F/	re-	<	2A-X/	re-	.	2d/	re-	.
4C\	-ni	.	.	4F/	-gni	.	4A-/	-gni	.	4d/	-gni	.
!	!	!	!	!	!	!	!LO:LB:g=original	!	!	!LO:LB:g=original	!	!
=111	=111	=111	=111	=111	=111	=111	=111	=111	=111	=111	=111	=111
!	!	!	!LO:DY:a	!	!	!LO:DY:a	!	!	!LO:DY:a	!	!	!
4C\	non	.	<	4G/	non	<	4B-/	non	<	4e/	non	.
4C\	e-	.	.	4G/	e-	.	4B-/	e-	.	4e/	e-	.
4C\	-rit	.	.	4G/	-rit	.	4B-/	-rit	.	4e/	-rit	.
=112	=112	=112	=112	=112	=112	=112	=112	=112	=112	=112	=112	=112
2C\	fi-	.	.	2F/	fi-	.	2A/	fi-	.	2f/	fi-	.
4C\	-nis	.	[[	4F/	-nis	[	4A/	-nis	[[	4f/	-nis	.
=113	=113	=113	=113	=113	=113	=113	=113	=113	=113	=113	=113	=113
2C\	et	.	.	2B-\	et	.	2e\	et	.	2g/	et	.
!LO:TX:a:t=poco a poco	!	!	!	!LO:TX:a:t=poco a poco cres	!	!	!LO:TX:a:t=poco	!	!	!	!	!
4C\	in	.	.	4B-\	in	.	4e\	in	.	4g/	in	.
=114	=114	=114	=114	=114	=114	=114	=114	=114	=114	=114	=114	=114
4.C\	spi-	.	.	4.A\	spi-	.	4.f\	spi-	.	4.a\	spi-	.
!	!	!	!	!	!	!	!LO:TX:a:t= a poco	!	!	!	!	!
8C\	-ri-	.	.	8A\	-ri-	.	8f\	-ri-	.	8a\	-ri-	.
4C\	-tum	.	.	4A\	-tum	.	4f\	-tum	.	4a\	-tum	.
!LO:LB:g=original	!	!	!	!	!	!	!	!	!	!	!	!
=115	=115	=115	=115	=115	=115	=115	=115	=115	=115	=115	=115	=115
!LO:TX:a:t=cres	!	!	!	!	!	!	!	!	!	!	!	!
2C\	san-	.	.	2A-X\	san-	.	2f\	san-	.	2bn\	san-	.
!	!	!	!	!	!	!	!LO:TX:a:t=cres	!	!	!	!	!
4C\	-ctum	.	.	4G\	-ctum	.	4f\	-ctum	.	4b\	-ctum	.
!	!	!	!	!LO:LB:g=original	!	!	!	!	!	!	!	!
=116	=116	=116	=116	=116	=116	=116	=116	=116	=116	=116	=116	=116
!	!	!	!	!	!	!LO:DY:a	!	!	!LO:DY:a	!	!	!
8.C/	Do-	.	.	8.G/	Do-	<	8.e\	Do-	<	8.cc\	Do-	.
16C/	-mi-	.	.	16G/	-mi-	.	16e\	-mi-	.	16cc\	-mi-	.
4C/	-num	.	.	4G/	-ne	.	4e\	-num	.	4cc\	-num	.
4BB-/	et	.	.	4G#X/	et	[[	4d\	et	[[	4ee\	et	.
!	!	!	!	!	!	!	!LO:LB:g=original	!	!	!LO:PB:g=original	!	!
=117	=117	=117	=117	=117	=117	=117	=117	=117	=117	=117	=117	=117
!	!	!	!LO:DY:b	!	!	!LO:DY:b	!	!	!	!	!	!
(4AA/	vi-	.	f	(4A\	vi-	f	4c\	vi-	f	2ee\	vi-	.
4A\)	.	.	.	4c\)	.	.	4cc\	.	.	.	.	.
4A\	-fi-	.	.	4c\	-fi-	.	4cc\	-fi-	.	4ee\	-fi-	.
=118	=118	=118	=118	=118	=118	=118	=118	=118	=118	=118	=118	=118
4G#X\	-can-	.	.	4B-\	-can-	.	4dd\	-can-	.	4ff\	-can-	.
4A\	-tem	.	.	4c\	-tem	.	4cc\	-tem	.	4ee\	-tum	.
4r	.	.	.	4r	.	.	4r	.	.	4r	.	.
=119	=119	=119	=119	=119	=119	=119	=119	=119	=119	=119	=119	=119
2F\	qui	.	.	2A\	qui	.	2bn\	qui	.	2dd\	qui	.
4F\	ex	.	.	4A\	ex	.	4b\	ex	.	4dd\	ex	.
=120	=120	=120	=120	=120	=120	=120	=120	=120	=120	=120	=120	=120
4F\	Pa-	.	.	4A\	Pa-	.	4bn\	Pa-	.	4dd\	Pa-	.
4E\	-tre	.	.	4G#X\	-tre	.	4b\	-tre	.	4ee\	-tre	.
4r	.	.	.	4r	.	.	4r	.	.	4r	.	.
!LO:LB:g=original	!	!	!	!	!	!	!	!	!	!	!	!
=121	=121	=121	=121	=121	=121	=121	=121	=121	=121	=121	=121	=121
8.A\	Fi-	.	.	8.A\	Fi-	.	8.cc\	fi-	.	8.ee\	Fi-	.
16A\	-li-	.	.	16c\	-li-	.	16cc\	-li-	.	16ee\	-li-	.
4A\	-o-	.	.	4c\	-o	.	4cc\	-o-	.	4ee\	-o	.
8A\	-que	.	.	8c\	que	.	8cc\	-que	.	8ee\	que	.
8A\	pro-	.	.	8c\	pro-	.	8cc\	pro-	.	8ee\	pro-	.
!	!	!	!	!LO:LB:g=original	!	!	!LO:LB:g=original	!	!	!LO:LB:g=original	!	!
=122	=122	=122	=122	=122	=122	=122	=122	=122	=122	=122	=122	=122
4G#X\	-ce-	.	.	4B-\	-ce-	.	4dd\	-ce-	.	4ff\	-ce-	.
4A\	-dit	.	.	4c\	-dit	.	4cc\	-dit	.	4ee\	-dit	.
4r	.	.	.	4r	.	.	4r	.	.	4r	.	.
=123	=123	=123	=123	=123	=123	=123	=123	=123	=123	=123	=123	=123
!	!	!	!LO:DY:b	!	!	!LO:DY:b	!	!	!LO:DY:b	!	!	!
2G#X\	Qui-	.	p	2d\	Qui-	p	2e\	Qui-	p	(4bn\	Qui-	.
.	.	.	.	.	.	.	.	.	.	4cc\)	.	.
4G#\	-cum	.	.	4d\	-cum	.	4e\	-cum	.	4b\	-cum	.
=124	=124	=124	=124	=124	=124	=124	=124	=124	=124	=124	=124	=124
2A\	Pa-	.	.	2c\	Pa-	.	2e\	Pa-	.	(4.a\	Pa-	.
.	.	.	.	.	.	.	.	.	.	8cc\)	.	.
4A\	-tre	.	.	4c\	-tre	.	4e\	-tre	.	4ee\	-tre	.
=125	=125	=125	=125	=125	=125	=125	=125	=125	=125	=125	=125	=125
4G#X\	Pa-	.	.	4d\	Pa-	.	4e\	Pa-	.	4bn\	Pa-	.
4G#\	-tre	.	.	4d\	-tre	.	4e\	-tre	.	4cc\	-tre	.
4G#\	et	.	.	4d\	et	.	4e\	et	.	4b\	et	.
=126	=126	=126	=126	=126	=126	=126	=126	=126	=126	=126	=126	=126
4.A\	Fi-	.	.	4.c\	Fi-	.	4.e\	Fi-	.	4.a\	Fi-	.
8A\	-li-	.	.	8c\	-li-	.	8e\	-li-	.	8cc\	-li-	.
4A\	-o	.	.	4c\	-o	.	4e\	-o	.	4ee\	-o	.
!LO:LB:g=original	!	!	!	!	!	!	!	!	!	!	!	!
=127	=127	=127	=127	=127	=127	=127	=127	=127	=127	=127	=127	=127
2C\	si-	.	.	2A\	si-	.	2e\	si-	.	2ee\	si-	.
4C\	-mul	.	.	4A\	-mul	.	4e\	-mul	.	4ee\	-mul	.
!	!	!	!	!LO:LB:g=original	!	!	!LO:LB:g=original	!	!	!LO:LB:g=original	!	!
=128	=128	=128	=128	=128	=128	=128	=128	=128	=128	=128	=128	=128
2D\	a-	.	.	(4A\	a-	.	2f\	a-	.	(4ee\	a-	.
.	.	.	.	4B-\)	.	.	.	.	.	4dd\)	.	.
4D\	-do-	.	.	4d\	-do-	.	4f\	-do-	.	4bn\	-do-	.
=129	=129	=129	=129	=129	=129	=129	=129	=129	=129	=129	=129	=129
2.E\	-ra-	.	.	(2e\	-ra-	.	2e\	-ra-	.	(2a\	-ra-	.
.	.	.	.	4d\)	.	.	4g#X\	.	.	4bn\)	.	.
=130	=130	=130	=130	=130	=130	=130	=130	=130	=130	=130	=130	=130
4A\	-tur	.	.	4c\	-tur	.	4a\	-tur	.	4cc\	-tur	.
4r	.	.	.	4r	.	.	4r	.	.	4r	.	.
4A\	et	.	.	4c\	et	.	4e\	et	.	4a\	et	.
=131	=131	=131	=131	=131	=131	=131	=131	=131	=131	=131	=131	=131
2G#X\	con	.	.	2d\	con	.	2e\	con	.	(4bn\	con	.
.	.	.	.	.	.	.	.	.	.	4cc\)	.	.
4G#\	glo-	.	.	4d\	glo-	.	4e\	glo-	.	4b\	glo-	.
=132	=132	=132	=132	=132	=132	=132	=132	=132	=132	=132	=132	=132
2A\	-ri-	.	.	2c\	-ri-	.	2e\	-ri-	.	(4a\	-ri-	.
.	.	.	.	.	.	.	.	.	.	4cc\)	.	.
4A\	-fi-	.	.	4c\	-fi-	.	4e\	-fi-	.	4ee\	-fi-	.
=133	=133	=133	=133	=133	=133	=133	=133	=133	=133	=133	=133	=133
2.G#X\	-ca-	.	.	2.d\	-ca-	.	2.e\	-ca-	.	(4bn\	-ca-	.
.	.	.	.	.	.	.	.	.	.	4cc\	.	.
.	.	.	.	.	.	.	.	.	.	4b\)	.	.
!	!	!	!	!	!	!	!	!	!	!LO:LB:g=original	!	!
=134	=134	=134	=134	=134	=134	=134	=134	=134	=134	=134	=134	=134
4A\	-tur	.	.	4c\	-tur	.	4e\	-tur	.	4a\	-tur	.
4r	.	.	.	4r	.	.	4r	.	.	4r	.	.
4A\	qui	.	.	4c\	qui	.	4e\	qui	.	4a\	qui	.
!LO:LB:g=original	!	!	!	!LO:LB:g=original	!	!	!LO:LB:g=original	!	!	!	!	!
=135	=135	=135	=135	=135	=135	=135	=135	=135	=135	=135	=135	=135
4E\	lo-	.	.	4G#X/	lo-	.	4e\	lo-	.	4bn\	lo-	.
4E\	-cu-	.	.	4G#/	-cu-	.	4e\	-cu-	.	4b\	-cu-	.
4E\	-tus	.	.	4G#/	-tus	.	4e\	-tus	.	4b\	-tus	.
=136	=136	=136	=136	=136	=136	=136	=136	=136	=136	=136	=136	=136
4A\	est	.	.	4A/	est	.	4e\	est	.	4cc\	est	.
4r	.	.	.	4r	.	.	4r	.	.	4r	.	.
4A\	qui	.	.	4c\	qui	.	4e\	qui	.	4cc\	qui	.
=137	=137	=137	=137	=137	=137	=137	=137	=137	=137	=137	=137	=137
4Gn\	lo-	.	.	4Bn\	lo-	.	4f\	lo-	.	4dd\	lo-	.
4G\	-cu-	.	.	4B\	-cu-	.	4f\	-cu-	.	4dd\	-cu-	.
4G\	-tus	.	.	4B\	-tus	.	4f\	-tus	.	4dd\	-tus	.
=138	=138	=138	=138	=138	=138	=138	=138	=138	=138	=138	=138	=138
4C/	est	.	.	4B-X\	est	.	4g\	est	.	4ee\	est	.
4r	.	.	.	4r	.	.	4r	.	.	4r	.	.
4r	.	.	.	4r	.	.	4r	.	.	4r	.	.
=139||	=139||	=139||	=139||	=139||	=139||	=139||	=139||	=139||	=139||	=139||	=139||	=139||
2.AA/	per	.	.	2.A\	per	.	2.f\	per	.	2.ff\	per	.
!	!	!	!	!	!	!	!	!	!	!LO:LB:g=original	!	!
=140	=140	=140	=140	=140	=140	=140	=140	=140	=140	=140	=140	=140
2.BB-/	Pro-	.	.	2.B-\	Pro-	.	(2f\	Pro-	.	(2dd\	Pro-	.
.	.	.	.	.	.	.	4g\)	.	.	4b-X\)	.	.
=141	=141	=141	=141	=141	=141	=141	=141	=141	=141	=141	=141	=141
2.C/	-phe-	.	.	(4c\	-phe-	.	(2f\	-phe-	.	(2a\	-phe-	.
.	.	.	.	4Bn\	.	.	.	.	.	.	.	.
.	.	.	.	4B-X\)	.	.	4e\)	.	.	4g\)	.	.
!LO:LB:g=original	!	!	!	!LO:LB:g=original	!	!	!LO:LB:g=original	!	!	!	!	!
=142	=142	=142	=142	=142	=142	=142	=142	=142	=142	=142	=142	=142
4FF/	-tas	.	.	4A/	-tas	.	4f\	-tas	.	4f/	-tas	.
4r	.	.	.	4r	.	.	4r	.	.	4r	.	.
4r	.	.	.	4r	.	.	4r	.	.	4r	.	.
=143	=143	=143	=143	=143	=143	=143	=143	=143	=143	=143	=143	=143
4F\	Et	.	.	4d\	Et	.	4f\	Et	.	4b-X\	Et	.
4F\	u-	.	.	4d\	u-	.	4f\	u-	.	4b-\	u-	.
4F\	-nam	.	.	4d\	-nam	.	4f\	-nam	.	4b-\	-nam	.
=144	=144	=144	=144	=144	=144	=144	=144	=144	=144	=144	=144	=144
4F\	san-	.	.	4d\	San-	.	4f\	san-	.	4b-\	san-	.
4F\	-ctam	.	.	4c\	-ctam	.	4f\	-ctam	.	4a\	-ctam	.
4r	.	.	.	4r	.	.	4r	.	.	4r	.	.
=145	=145	=145	=145	=145	=145	=145	=145	=145	=145	=145	=145	=145
4C/	san-	.	.	4B-\	San-	.	4e\	san-	.	4g\	san-	.
4C/	-ctam	.	.	4B-\	-ctam	.	4e\	-ctam	.	4g\	-ctam	.
4C/	Ca-	.	.	4c\	Ca-	.	4e\	Ca-	.	4a\	Ca-	.
!	!	!	!	!	!	!	!	!	!	!LO:LB:g=original	!	!
=146	=146	=146	=146	=146	=146	=146	=146	=146	=146	=146	=146	=146
8.C/	-tho-	.	.	8.B-\	-tho-	.	8.e\	-tho-	.	8.g\	-tho-	.
16F\	-li-	.	.	16A\	-li-	.	16c\	-li-	.	16f\	-li-	.
4F\	-cam	.	.	4A\	-cam	.	4c\	-cam	.	4f\	-cam	.
4r	.	.	.	4r	.	.	4r	.	.	4r	.	.
=147	=147	=147	=147	=147	=147	=147	=147	=147	=147	=147	=147	=147
4F\	et	.	.	4d\	et	.	4f\	et	.	4b-\	et	.
4F\	A-	.	.	4d\	A-	.	4f\	A-	.	4b-\	A-	.
4F\	-po-	.	.	4d-X\	-po-	.	4f\	-po-	.	4b-\	-po-	.
!LO:LB:g=original	!	!	!	!LO:LB:g=original	!	!	!LO:LB:g=original	!	!	!	!	!
=148	=148	=148	=148	=148	=148	=148	=148	=148	=148	=148	=148	=148
8.F\	-sto-	.	.	8.c\	-sto-	.	8.f\	-sto-	.	8.a\	-sto-	.
16F\	-li-	.	.	16c\	-li-	.	16f\	-li-	.	16a\	-li-	.
4F\	-cam	.	.	4c\	-cam	.	4f\	-cam	.	4a\	-cam	.
4BB-/	E-	.	.	4dn\	E-	.	4f\	E-	.	4b-\	E-	.
=149	=149	=149	=149	=149	=149	=149	=149	=149	=149	=149	=149	=149
2C/	-cle-	.	.	(4c\	-cle-	.	2e\	-cle-	.	2g\	-cle-	.
.	.	.	.	4Bn\)	.	.	.	.	.	.	.	.
4C/	-si-	.	.	4B-X\	-si-	.	4e\	-si-	.	4g\	-si-	.
=150	=150	=150	=150	=150	=150	=150	=150	=150	=150	=150	=150	=150
4F\	-am	.	.	4A\	-am	.	4c\	-am	.	4f\	-am	.
4r	.	.	.	4r	.	.	4r	.	.	4r	.	.
4r	.	.	.	4r	.	.	4r	.	.	4r	.	.
=151	=151	=151	=151	=151	=151	=151	=151	=151	=151	=151	=151	=151
2F\	Con-	.	.	2d\	Con-	.	2f\	Con-	.	2ff\	Con-	.
!	!	!	!	!LO:TX:a:t=+	!	!	!	!	!	!	!	!
4F\	-fi-	.	.	4d\	-fi-	.	4f\	-fi-	.	4ff\	-fi-	.
!	!	!	!	!	!	!	!	!	!	!LO:LB:g=original	!	!
=152	=152	=152	=152	=152	=152	=152	=152	=152	=152	=152	=152	=152
2F\	-te-	.	.	(4c\	-te-	.	2f\	-te-	.	(4ee\	-te-	.
.	.	.	.	4A\)	.	.	.	.	.	4cc\)	.	.
4F\	-or	.	.	4c\	-or	.	4f\	-or	.	4ee\	-or	.
=153	=153	=153	=153	=153	=153	=153	=153	=153	=153	=153	=153	=153
4F\	u-	.	.	4B-\	u-	.	4f\	u-	.	4dd\	u-	.
4F\	-num	.	.	4d\	-num	.	4f\	-num	.	4dd\	-num	.
!	!	!	!	!	!	!	!LO:TX:a:t=P:problem=brak caudy	!	!	!	!	!
4F\	ba-	.	.	4e\	ba-	.	4b-\	ba-	.	4dd\	bap-	.
!LO:LB:g=original	!	!	!	!LO:LB:g=original	!	!	!LO:LB:g=original	!	!	!	!	!
=154	=154	=154	=154	=154	=154	=154	=154	=154	=154	=154	=154	=154
4F\	-ptis-	.	.	(8.e\L	-ptis-	.	4b-\	-pti-	.	4dd\	-tis-	.
.	.	.	.	16f\Jk)	.	.	.	.	.	.	.	.
4F\	-ma	.	.	4f\	-ma	.	4a\	-sma	.	4cc\	-ma	.
4r	.	.	.	4r	.	.	4r	.	.	4r	.	.
=155	=155	=155	=155	=155	=155	=155	=155	=155	=155	=155	=155	=155
*^	*	*	*	*	*	*	*	*	*	*	*	*
4.B-\	4.C\	in	.	.	4.c\	in	.	4.e\	in	.	4.g\	in	.
8B-\	8C\	re-	.	.	8c\	re-	.	8e\	re-	.	8g\	re-	.
8A\	8C\	-mi-	.	.	8c\	-mi-	.	8f\	-mi-	.	8a\	-mi-	.
8G\	8C\	-si-	.	.	8B-\	-si-	.	8g\	-si-	.	8b-\	-si-	.
*v	*v	*	*	*	*	*	*	*	*	*	*	*	*
=156	=156	=156	=156	=156	=156	=156	=156	=156	=156	=156	=156	=156
(4F\	-o-	.	.	(4A\	-o-	.	(4a\	-o-	.	(4cc\	-o-	.
4E\)	.	.	.	4G\)	.	.	4b-\)	.	.	4dd\)	.	.
4F\	-nem	.	.	4A\	-nem	.	4a\	-nem	.	4cc\	-nem	.
=157	=157	=157	=157	=157	=157	=157	=157	=157	=157	=157	=157	=157
*^	*	*	*	*	*	*	*	*	*	*	*	*
2B-/	2C\	pe-	.	.	2c\	pe-	.	2e\	pe-	.	2g\	pec-	.
8A/L	4C\	-ca-	.	.	(8c\L	-ca-	.	(8f\	-ca-	.	(8a\L	-ca-	.
8G/J	.	.	.	.	8B-\J)	.	.	8g\)	.	.	8b-\J)	.	.
*v	*v	*	*	*	*	*	*	*	*	*	*	*	*
!	!	!	!	!	!	!	!	!	!	!LO:LB:g=original	!	!
=158	=158	=158	=158	=158	=158	=158	=158	=158	=158	=158	=158	=158
8qA/	.	.	.	.	.	.	.	.	.	.	.	.
(4F\	-to-	.	.	(4A\	-to-	.	(4a\	-to-	.	(4cc\	-to-	.
4E\)	.	.	.	4G\)	.	.	4b-\)	.	.	4dd\)	.	.
4F\	-rum	.	.	4A\	-rum	.	4a\	-rum	.	4cc\	-rum	.
!	!	!	!	!LO:LB:g=original	!	!	!LO:LB:g=original	!	!	!	!	!
=159	=159	=159	=159	=159	=159	=159	=159	=159	=159	=159	=159	=159
2F\	et	.	.	2A\	et	.	2f\	et	.	2cc\	et	.
4F\	ex	.	.	4A\	ex-	.	4f\	ex-	.	4cc\	ex-	.
!LO:LB:g=original	!	!	!	!	!	!	!	!	!	!	!	!
=160	=160	=160	=160	=160	=160	=160	=160	=160	=160	=160	=160	=160
2BB-/	pec-	.	.	2B-\	-pe-	.	2f\	-pec-	.	2dd\	-pec-	.
4BB-/	-to	.	.	4B-\	-cto	.	4f\	-to	.	4dd\	-to	.
=161	=161	=161	=161	=161	=161	=161	=161	=161	=161	=161	=161	=161
2AA/	et	.	.	2c#X\	et	.	2a\	et	.	2ee\	et	.
4AA/	ex	.	.	4c#\	ex-	.	4a\	ex-	.	4ee\	ex-	.
=162	=162	=162	=162	=162	=162	=162	=162	=162	=162	=162	=162	=162
4D\	pec-	.	.	4d\	-pec-	.	4a\	-pec-	.	4ff\	-pec-	.
4D\	-to	.	.	4d\	-to	.	4a\	-to	.	4ff\	-to	.
4r	.	.	.	4r	.	.	4r	.	.	4r	.	.
=163	=163	=163	=163	=163	=163	=163	=163	=163	=163	=163	=163	=163
!	!	!	!LO:DY:b	!	!	!LO:DY:b	!	!	!LO:DY:b	!	!	!
2F\	re-	.	ff	2f\	re-	ff	2f\	re-	ff	2ff\	re-	.
4F\	-sur-	.	.	4f\	-sur-	.	4f\	-sur-	.	4ff\	-sur-	.
=164	=164	=164	=164	=164	=164	=164	=164	=164	=164	=164	=164	=164
2F\	-re-	.	.	2f\	-re-	.	2f\	-re-	.	2ff\	-re-	.
4F\	-cti-	.	.	4f\	-cti-	.	4f\	-cti-	.	4ff\	-cti-	.
!	!	!	!	!	!	!	!	!	!	!LO:LB:g=original	!	!
=165	=165	=165	=165	=165	=165	=165	=165	=165	=165	=165	=165	=165
!	!	!	!LO:DY:a	!	!	!	!	!	!LO:DY:a	!	!	!
2.F\	-o-	.	>	2.f\	-o-	.	2.f\	-o-	>]	2.ff\	-o-	.
!	!	!	!	!	!	!	!LO:PB:g=original	!	!	!	!	!
=166	=166	=166	=166	=166	=166	=166	=166	=166	=166	=166	=166	=166
2.F\	-nem	.	]]	2.f\	-nem	.	2.f\	-nem	.	2.ff\	-nem	.
!LO:LB:g=original	!	!	!	!LO:PB:g=original	!	!	!	!	!	!	!	!
=167	=167	=167	=167	=167	=167	=167	=167	=167	=167	=167	=167	=167
!	!	!	!LO:DY:b	!	!	!	!	!	!LO:DY:a	!	!	!
2D-X\	mor-	.	p	2A-X\	mor-	p	2f\	mor-	p	2dd-X\	mor-	.
4D-\	-tu-	.	.	4A-\	-tu-	.	4f\	-tu-	.	4dd-\	-tu-	.
=168	=168	=168	=168	=168	=168	=168	=168	=168	=168	=168	=168	=168
2.D-X\	-o-	.	.	2.An\	-o-	.	2.g-X\	-o-	.	2.dd-X\	-o-	.
=169	=169	=169	=169	=169	=169	=169	=169	=169	=169	=169	=169	=169
[2.D-X\	-rum	.	.	[2.A-X\	-rum	.	[2.f\	-rum.	.	[2.dd-X\	-rum	.
=170	=170	=170	=170	=170	=170	=170	=170	=170	=170	=170	=170	=170
4D-\]	.	.	.	4A-\]	.	.	4f\]	.	.	4dd-\]	.	.
4r	.	.	.	4r	.	.	4r	.	.	4r	.	.
4En\	Et	.	.	4B-X\	Et	.	4g\	Et	.	4cc\	Et	.
=171	=171	=171	=171	=171	=171	=171	=171	=171	=171	=171	=171	=171
4F\	vi-	.	.	4A\	vi-	.	4f\	vi-	.	4ff\	vi-	.
4F\	-tam	.	.	4c\	-tam	.	4a\	-tam	.	4ff\	-tam	.
4F\	ven-	.	.	4c\	ven-	.	4a\	ven-	.	4ff\	ven-	.
=172	=172	=172	=172	=172	=172	=172	=172	=172	=172	=172	=172	=172
2BB-/	-tu-	.	.	(4d\	-tu-	.	2f\	-tu-	.	(4ff\	-tu-	.
.	.	.	.	4c\)	.	.	.	.	.	4ee\)	.	.
4BB-/	-ri	.	.	4B-\	-ri	.	4f\	-ri	.	4dd\	-ri	.
!	!	!	!	!	!	!	!LO:LB:g=original	!	!	!LO:LB:g=original	!	!
=173	=173	=173	=173	=173	=173	=173	=173	=173	=173	=173	=173	=173
2C/	se-	.	.	2A\	se-	.	2f\	se-	.	2cc\	se-	.
4C/	-cu-	.	.	4G\	-cu-	.	4e\	-cu-	.	4cc\	-cu-	.
!	!	!	!	!LO:LB:g=original	!	!	!	!	!	!	!	!
=174	=174	=174	=174	=174	=174	=174	=174	=174	=174	=174	=174	=174
4F\	-li	.	.	4A\	-li	.	4f\	-li	.	4a\	-li	.
4r	.	.	.	4c\	A-	.	4r	.	.	4r	.	.
4r	.	.	.	4c\	-men	.	4r	.	.	4r	.	.
!LO:LB:g=original	!	!	!	!	!	!	!	!	!	!	!	!
=175	=175	=175	=175	=175	=175	=175	=175	=175	=175	=175	=175	=175
!	!	!	!	!	!	!	!	!	!	!LO:TX:a:t=VS	!	!
!	!	!	!	!	!	!	!LO:TX:a:t=1.	!	!	!LO:TX:a:t=1	!	!
(4C\	A-	.	.	(4c\	A-	.	2.r	.	.	2.r	.	.
4D\)	.	.	.	4Bn\)	.	.	.	.	.	.	.	.
4E\	.	.	.	4B-X\	.	.	.	.	.	.	.	.
!	!	!	!	!	!	!	!	!	!	!LO:PB:g=original	!	!
=176	=176	=176	=176	=176	=176	=176	=176	=176	=176	=176	=176	=176
4F\	-men	.	.	4A\	-men	.	(4f\	A-	.	(4a\	A-	.
4r	.	.	.	4r	.	.	4g\	.	.	4b-\	.	.
4r	.	.	.	4r	.	.	4a\	.	.	4cc\)	.	.
=177	=177	=177	=177	=177	=177	=177	=177	=177	=177	=177	=177	=177
(4C\	A-	.	.	(4c\	A-	.	4e\)	-men	.	4g\	-men	.
4D\)	.	.	.	4Bn\	.	.	4r	.	.	4r	.	.
4E\	.	.	.	4B-X\)	.	.	4r	.	.	4r	.	.
=178	=178	=178	=178	=178	=178	=178	=178	=178	=178	=178	=178	=178
4F\	-men	.	.	4A\	-men	.	(4f\	a-	.	(4a\	A-	.
4r	.	.	.	4r	.	.	4g\)	.	.	4b-\	.	.
4r	.	.	.	4r	.	.	4a\	-men	.	4cc\)	-men	.
=179	=179	=179	=179	=179	=179	=179	=179	=179	=179	=179	=179	=179
2.B-\	A-	.	.	2.f\	A-	.	2.b-\	a-	.	2.dd\	A-	.
!	!	!	!	!	!	!	!LO:LB:g=original	!	!	!	!	!
=180	=180	=180	=180	=180	=180	=180	=180	=180	=180	=180	=180	=180
4F\	-men	.	.	4f\	-men	.	4a\	-men	.	4cc\	-men	.
4r	.	.	.	4r	.	.	4r	.	.	4r	.	.
4r	.	.	.	4r	.	.	4r	.	.	4r	.	.
!	!	!	!	!LO:LB:g=original	!	!	!	!	!	!	!	!
=181	=181	=181	=181	=181	=181	=181	=181	=181	=181	=181	=181	=181
2.C#X\	A-	.	.	2.g\	A-	.	2.b-\	A-	.	2.ee\	A-	.
=182	=182	=182	=182	=182	=182	=182	=182	=182	=182	=182	=182	=182
4D\	-men	.	.	4f\	-men	.	4a\	-men	.	4ff\	-men	.
4r	.	.	.	4r	.	.	4r	.	.	4r	.	.
4r	.	.	.	4r	.	.	4r	.	.	4r	.	.
!LO:LB:g=original	!	!	!	!	!	!	!	!	!	!LO:LB:g=original	!	!
=183	=183	=183	=183	=183	=183	=183	=183	=183	=183	=183	=183	=183
2.BB-/	A-	.	.	2.d\	A-	.	2.f\	A-	.	2.b-\	A-	.
=184	=184	=184	=184	=184	=184	=184	=184	=184	=184	=184	=184	=184
4F\	-men	.	.	4c\	-men	.	4f\	-men	.	4a\	-men	.
4r	.	.	.	4r	.	.	4r	.	.	4r	.	.
4r	.	.	.	4r	.	.	4r	.	.	4r	.	.
=185	=185	=185	=185	=185	=185	=185	=185	=185	=185	=185	=185	=185
2.C/	A-	.	.	2.B-\	A-	.	2.e\	A-	.	2.g\	A-	.
=186	=186	=186	=186	=186	=186	=186	=186	=186	=186	=186	=186	=186
4FF/	-men	.	.	4A\	-men	.	4c\	-men	.	4f\	-men	.
4r	.	.	.	4r	.	.	4r	.	.	4r	.	.
4r	.	.	.	4r	.	.	4r	.	.	4r	.	.
=187	=187	=187	=187	=187	=187	=187	=187	=187	=187	=187	=187	=187
[2.F\	A-	.	.	[2.A\	A-	.	[2.c\	A-	.	[>2.f/	A-	.
!	!	!	!	!	!	!	!LO:LB:g=original	!	!	!	!	!
=188	=188	=188	=188	=188	=188	=188	=188	=188	=188	=188	=188	=188
2.F\]	.	.	.	2.A\]	.	.	2.c\]	.	.	2.f/]	.	.
=189	=189	=189	=189	=189	=189	=189	=189	=189	=189	=189	=189	=189
4FF/	-men	.	.	4A\	-men	.	4c\	-men	.	4f/	-men	.
4r	.	.	.	4r	.	.	4r	.	.	4r	.	.
4r	.	.	.	4r	.	.	4r	.	.	4r	.	.
=190	=190	=190	=190	=190	=190	=190	=190	=190	=190	=190	=190	=190
2.r;	.	.	.	2.r;	.	.	2.r;	.	.	2.r;	.	.
==	==	==	==	==	==	==	==	==	==	==	==	==
*-	*-	*-	*-	*-	*-	*-	*-	*-	*-	*-	*-	*-
!!!system-decoration: [(g1)]
!!!RDF**kern: >= above
!!!RDF**kern: <= below
!!!ENC: Anna Matuszewska
!!!END: 2021-01-15
!!!ENC: Berenika Jozajtis
!!!END: 2021-01-09
